X: 137
T: Wolf Song
C: Teton Sioux band 1911-1914
N: Derived from sioux133b.krn
O: South Dakota, U.S.A.
N: Teton Sioux Music by Frances Densmore, 1918
Z: transcribed to **kern format by Craig Sapp
L: 1/8
M: 2/4
Q: 1/4=58
K: D clef=bass
%%linebreak <none>
F> ED2 [I:setbarnb 2]| 
F> ED2 | 
D D D B, | 
D> DB,2- | 
B,2B,2 | 
F> ED2 | 
F> ED2 | 
D D D B, | 
D> DB,2 ||  
[M:3/4]A,< A, A,< F,F,2 | 
D/> D/ B,D2B,2 ||  
[M:2/4]A,< A, A,/ F,3/ | 
F,> E, D, F,/ E,/ | 
D,2E, D, ||  
[M:3/4]B,,> B,,B,,3B,, | 
B,,2B,,2D3/ D/ | 
(3D F E (3D (F E)D2 ||  
[M:2/4]D< D D B, | 
D2B,3/ B,/ ||  
[M:3/4]A,< A, A,< F,F,2 | 
D/> D/ B,D2B,2 ||  
[M:2/4]A,< A, A,/ F,3/ | 
(F,> E,) D, F,/ E,/ | 
D,2E, D, | 
B,, B,,B,,2 | 
B,,2B,,2 |]  



